; HEADER_BLOCK_START
; generated by Creality_Print V6.0.3.1591 on 2025-03-03 at 22:17:57
; total layer number: 150
; filament_density: 1.24
; filament_diameter: 1.75
; max_z_height: 30.00
; HEADER_BLOCK_END

; MINX = 47.97
; MINY = 14.90
; MINZ = 0.00
; MAXX = 171.88
; MAXY = 208.48
; MAXZ = 30.00

; THUMBNAIL_BLOCK_START

;
; THUMBNAIL_BLOCK_END

; THUMBNAIL_BLOCK_START

;
; THUMBNAIL_BLOCK_END

; external perimeters extrusion width = 0.42mm
; perimeters extrusion width = 0.45mm
; infill extrusion width = 0.45mm
; solid infill extrusion width = 0.42mm
; top infill extrusion width = 0.42mm
; first layer extrusion width = 0.50mm

; external perimeters extrusion width = 0.42mm
; perimeters extrusion width = 0.45mm
; infill extrusion width = 0.45mm
; solid infill extrusion width = 0.42mm
; top infill extrusion width = 0.42mm
; first layer extrusion width = 0.50mm

; external perimeters extrusion width = 0.42mm
; perimeters extrusion width = 0.45mm
; infill extrusion width = 0.45mm
; solid infill extrusion width = 0.42mm
; top infill extrusion width = 0.42mm
; first layer extrusion width = 0.50mm

; external perimeters extrusion width = 0.42mm
; perimeters extrusion width = 0.45mm
; infill extrusion width = 0.45mm
; solid infill extrusion width = 0.42mm
; top infill extrusion width = 0.42mm
; first layer extrusion width = 0.50mm

; external perimeters extrusion width = 0.42mm
; perimeters extrusion width = 0.45mm
; infill extrusion width = 0.45mm
; solid infill extrusion width = 0.42mm
; top infill extrusion width = 0.42mm
; first layer extrusion width = 0.50mm

; external perimeters extrusion width = 0.42mm
; perimeters extrusion width = 0.45mm
; infill extrusion width = 0.45mm
; solid infill extrusion width = 0.42mm
; top infill extrusion width = 0.42mm
; first layer extrusion width = 0.50mm

; EXECUTABLE_BLOCK_START
EXCLUDE_OBJECT_DEFINE NAME=세콤네컷_케이스_LED_뚜껑_.stl_id_0_copy_0 CENTER=131.222,177.563 POLYGON=[[121.222,164.563],[141.222,164.563],[141.222,190.563],[121.222,190.563],[121.222,164.563]]
EXCLUDE_OBJECT_DEFINE NAME=세콤네컷_케이스_뚜껑_.stl_id_1_copy_0 CENTER=109.469,161.982 POLYGON=[[47.9693,115.482],[170.969,115.482],[170.969,208.482],[47.9693,208.482],[47.9693,115.482]]
EXCLUDE_OBJECT_DEFINE NAME=세콤네컷_케이스_바닥_.stl_id_2_copy_0 CENTER=110.383,61.3973 POLYGON=[[48.8834,14.8973],[171.883,14.8973],[171.883,107.897],[48.8834,107.897],[48.8834,14.8973]]
EXCLUDE_OBJECT_DEFINE NAME=세콤네컷_케이스_카메라_모듈_.stl_id_3_copy_0 CENTER=89.0641,173.862 POLYGON=[[65.4641,155.862],[112.664,155.862],[112.664,191.862],[65.4641,191.862],[65.4641,155.862]]
EXCLUDE_OBJECT_DEFINE NAME=세콤네컷_케이스_카메라_케이스_뚜껑_.stl_id_4_copy_0 CENTER=136.409,157.116 POLYGON=[[122.809,154.116],[150.009,154.116],[150.009,160.116],[122.809,160.116],[122.809,154.116]]
EXCLUDE_OBJECT_DEFINE NAME=세콤네컷_케이스_카메라케이스_.stl_id_5_copy_0 CENTER=107.71,135.871 POLYGON=[[93.6097,132.621],[121.81,132.621],[121.81,139.121],[93.6097,139.121],[93.6097,132.621]]
M73 P0 R117
M106 S0
M106 P2 S0
;TYPE:Custom
M141 S35;set chamber_temperature
M140 S0
M104 S0 
START_PRINT EXTRUDER_TEMP=250 BED_TEMP=70
T0
M204 S2000
G1 Z3 F600
M83
G92 E0
G1 Z1 F600
G90
G21
M83 ; use relative distances for extrusion
G1 E-.8 F1800
M106 S0
;LAYER_CHANGE
;Z:0.2
;HEIGHT:0.2
;BEFORE_LAYER_CHANGE
;0.2
G92 E0

;AFTER_LAYER_CHANGE
;0.2
;_SET_FAN_SPEED_CHANGING_LAYER
SET_VELOCITY_LIMIT ACCEL=1000 ACCEL_TO_DECEL=1000
SET_VELOCITY_LIMIT SQUARE_CORNER_VELOCITY=20
; printing object 세콤네컷 케이스 (바닥).stl id:2 copy 0
EXCLUDE_OBJECT_START NAME=세콤네컷_케이스_바닥_.stl_id_2_copy_0
G1 Z.4 F30000
G1 X42.07 Y12.663
G1 Z.2
G1 E.8 F1800
;TYPE:Brim
;WIDTH:0.5
G1 F3600
G1 X42.13 Y12.464 E.0075
G1 X42.586 Y11.465 E.03966
G1 X43.074 Y10.682 E.03331
G1 X43.595 Y10.04 E.02987
G1 X44.188 Y9.461 E.0299
G1 X44.844 Y8.956 E.0299
G1 X45.555 Y8.531 E.0299
G1 X46.311 Y8.191 E.02995
G1 X46.923 Y7.989 E.02326
G1 X47.731 Y7.808 E.02989
G1 X48.893 Y7.713 E.0421
G1 X171.877 Y7.713 E4.44046
G1 X172.71 Y7.761 E.03014
G1 X173.525 Y7.906 E.0299
G1 X174.316 Y8.144 E.02982
G1 X175.316 Y8.6 E.03966
G1 X176.098 Y9.088 E.03331
G1 X176.741 Y9.609 E.02987
G1 X177.319 Y10.202 E.0299
G1 X177.825 Y10.858 E.0299
G1 X178.25 Y11.569 E.0299
G1 X178.59 Y12.325 E.02995
G1 X178.791 Y12.937 E.02326
G1 X178.973 Y13.745 E.02989
G1 X179.068 Y14.907 E.0421
G1 X179.068 Y107.891 E3.35728
G1 X179.019 Y108.724 E.03014
G1 X178.875 Y109.539 E.0299
G1 X178.637 Y110.33 E.02982
G1 X178.181 Y111.329 E.03966
G1 X177.692 Y112.112 E.03331
G1 X177.172 Y112.755 E.02987
G1 X176.579 Y113.333 E.0299
G1 X175.923 Y113.838 E.0299
G1 X175.212 Y114.264 E.0299
G1 X174.455 Y114.603 E.02995
G1 X173.844 Y114.805 E.02326
G1 X173.036 Y114.987 E.02989
G1 X171.874 Y115.082 E.0421
G1 X48.89 Y115.082 E4.44046
G1 X48.057 Y115.033 E.03014
G1 X47.241 Y114.889 E.0299
G1 X46.451 Y114.651 E.02982
G1 X45.451 Y114.195 E.03966
G1 X44.669 Y113.706 E.03331
G1 X44.026 Y113.186 E.02987
G1 X43.447 Y112.593 E.0299
G1 X42.942 Y111.937 E.0299
G1 X42.517 Y111.226 E.0299
G1 X42.177 Y110.469 E.02995
G1 X41.976 Y109.858 E.02326
G1 X41.794 Y109.05 E.02989
G1 X41.699 Y107.888 E.0421
G1 X41.699 Y14.904 E3.35728
G1 X41.747 Y14.071 E.03014
G1 X41.892 Y13.255 E.0299
G1 X42.059 Y12.702 E.02088
G1 X42.497 Y12.834 F30000
G1 F3600
G1 X42.563 Y12.617 E.00818
G1 X42.986 Y11.69 E.03681
G1 X43.453 Y10.942 E.03184
G1 X43.939 Y10.342 E.02787
G1 X44.494 Y9.802 E.02796
G1 X45.109 Y9.331 E.02796
G1 X45.759 Y8.941 E.02739
G1 X46.484 Y8.616 E.02867
G1 X47.052 Y8.429 E.02158
G1 X47.79 Y8.263 E.02734
G1 X48.917 Y8.17 E.04081
G1 X171.867 Y8.17 E4.43925
G1 X172.664 Y8.217 E.02883
G1 X173.427 Y8.354 E.02796
G1 X174.163 Y8.577 E.02778
G1 X175.106 Y9.008 E.03745
G1 X175.825 Y9.457 E.0306
G1 X176.438 Y9.953 E.02848
G1 X176.978 Y10.508 E.02796
G1 X177.45 Y11.122 E.02796
G1 X177.847 Y11.788 E.02796
G1 X178.16 Y12.484 E.02758
G1 X178.352 Y13.066 E.0221
G1 X178.518 Y13.804 E.02734
G1 X178.611 Y14.92 E.04041
G1 X178.611 Y107.873 E3.35618
G1 X178.565 Y108.662 E.02855
G1 X178.427 Y109.441 E.02854
G1 X178.204 Y110.177 E.02778
G1 X177.781 Y111.105 E.03681
G1 X177.314 Y111.853 E.03184
G1 X176.828 Y112.452 E.02787
G1 X176.272 Y112.992 E.02796
G1 X175.658 Y113.464 E.02796
G1 X175.007 Y113.853 E.02739
G1 X174.283 Y114.179 E.02867
G1 X173.715 Y114.366 E.02158
G1 X172.976 Y114.532 E.02734
G1 X171.85 Y114.625 E.04081
G1 X48.907 Y114.625 E4.43896
G1 X48.118 Y114.579 E.02855
G1 X47.34 Y114.441 E.02854
G1 X46.604 Y114.218 E.02778
G1 X45.676 Y113.795 E.03681
G1 X44.928 Y113.328 E.03184
G1 X44.329 Y112.841 E.02787
G1 X43.788 Y112.286 E.02796
G1 X43.317 Y111.672 E.02796
G1 X42.927 Y111.021 E.02739
G1 X42.602 Y110.297 E.02867
G1 X42.415 Y109.729 E.02158
G1 X42.249 Y108.99 E.02734
G1 X42.156 Y107.864 E.04081
G1 X42.156 Y14.921 E3.35578
M73 P0 R116
G1 X42.202 Y14.132 E.02854
M73 P0 R116
G1 X42.34 Y13.354 E.02854
G1 X42.485 Y12.873 E.01815
G1 X42.923 Y13.006 F30000
G1 F3600
G1 X42.995 Y12.771 E.00888
G1 X43.386 Y11.915 E.03397
G1 X43.821 Y11.215 E.02976
G1 X44.283 Y10.646 E.02648
G1 X44.8 Y10.144 E.02603
G1 X45.36 Y9.714 E.02546
G1 X45.964 Y9.351 E.02546
G1 X46.656 Y9.04 E.02739
G1 X47.18 Y8.869 E.0199
G1 X47.85 Y8.718 E.02482
G1 X48.941 Y8.627 E.03953
G1 X171.85 Y8.627 E4.43773
G1 X172.618 Y8.674 E.02781
G1 X173.328 Y8.801 E.02603
G1 X174.01 Y9.009 E.02573
G1 X174.897 Y9.416 E.03525
G1 X175.552 Y9.825 E.02789
G1 X176.135 Y10.297 E.02708
G1 X176.627 Y10.802 E.02544
G1 X177.066 Y11.373 E.02603
G1 X177.437 Y11.992 E.02604
G1 X177.73 Y12.644 E.0258
G1 X177.912 Y13.194 E.02094
G1 X178.063 Y13.864 E.02481
G1 X178.153 Y14.944 E.03912
G1 X178.154 Y107.856 E3.35467
G1 X178.109 Y108.617 E.02753
G1 X177.979 Y109.342 E.02659
G1 X177.772 Y110.024 E.02572
G1 X177.381 Y110.88 E.03397
G1 X176.946 Y111.58 E.02976
G1 X176.484 Y112.149 E.02648
G1 X175.967 Y112.651 E.02603
G1 X175.407 Y113.081 E.02546
G1 X174.802 Y113.443 E.02546
G1 X174.111 Y113.755 E.02739
G1 X173.587 Y113.926 E.0199
G1 X172.916 Y114.077 E.02482
G1 X171.825 Y114.168 E.03953
G1 X48.925 Y114.168 E4.43745
G1 X48.164 Y114.123 E.02753
G1 X47.439 Y113.993 E.02659
G1 X46.757 Y113.786 E.02572
G1 X45.901 Y113.395 E.03397
G1 X45.201 Y112.96 E.02976
G1 X44.632 Y112.498 E.02648
G1 X44.13 Y111.98 E.02603
G1 X43.7 Y111.421 E.02546
G1 X43.337 Y110.816 E.02546
G1 X43.026 Y110.125 E.02739
G1 X42.855 Y109.601 E.0199
G1 X42.704 Y108.93 E.02482
G1 X42.613 Y107.839 E.03953
G1 X42.613 Y14.939 E3.35427
G1 X42.658 Y14.178 E.02753
G1 X42.787 Y13.452 E.02659
G1 X42.912 Y13.044 E.0154
G1 X43.349 Y13.179 F30000
G1 F3600
G1 X43.427 Y12.925 E.00958
G1 X43.786 Y12.139 E.03117
G1 X44.189 Y11.488 E.02766
G1 X44.616 Y10.961 E.02448
G1 X45.106 Y10.485 E.02467
G1 X45.611 Y10.097 E.02299
G1 X46.169 Y9.761 E.02353
G1 X46.828 Y9.465 E.02609
G1 X47.308 Y9.308 E.01821
G1 X47.911 Y9.173 E.02231
G1 X48.966 Y9.084 E.03824
G1 X171.832 Y9.084 E4.43618
G1 X172.572 Y9.13 E.02678
G1 X173.228 Y9.249 E.02408
G1 X173.855 Y9.441 E.02368
G1 X174.687 Y9.824 E.03306
G1 X175.293 Y10.203 E.02581
G1 X175.832 Y10.641 E.02508
G1 X176.285 Y11.108 E.0235
G1 X176.692 Y11.638 E.02411
G1 X177.027 Y12.197 E.02354
G1 X177.301 Y12.803 E.024
G1 X177.473 Y13.323 E.01977
G1 X177.608 Y13.925 E.02228
G1 X177.696 Y14.969 E.03784
G1 X177.697 Y107.838 E3.35314
G1 X177.653 Y108.571 E.0265
G1 X177.532 Y109.243 E.02464
G1 X177.34 Y109.87 E.02368
G1 X176.981 Y110.655 E.03117
G1 X176.577 Y111.306 E.02766
G1 X176.151 Y111.833 E.02448
G1 X175.661 Y112.309 E.02467
G1 X175.156 Y112.697 E.02299
G1 X174.597 Y113.033 E.02353
G1 X173.939 Y113.33 E.02609
G1 X173.459 Y113.486 E.01821
G1 X172.856 Y113.622 E.02231
G1 X171.801 Y113.711 E.03824
G1 X48.942 Y113.711 E4.43593
G1 X48.21 Y113.667 E.0265
G1 X47.538 Y113.546 E.02464
G1 X46.911 Y113.354 E.02368
G1 X46.125 Y112.995 E.03117
G1 X45.474 Y112.591 E.02766
G1 X44.947 Y112.165 E.02448
G1 X44.471 Y111.675 E.02467
G1 X44.083 Y111.17 E.02299
G1 X43.747 Y110.611 E.02353
G1 X43.451 Y109.952 E.02609
G1 X43.294 Y109.473 E.01821
G1 X43.159 Y108.87 E.02231
G1 X43.07 Y107.815 E.03824
G1 X43.07 Y14.956 E3.35275
G1 X43.114 Y14.223 E.0265
G1 X43.235 Y13.552 E.02464
G1 X43.338 Y13.217 E.01265
G1 X43.775 Y13.352 F30000
G1 F3600
G1 X43.859 Y13.079 E.0103
G1 X44.186 Y12.363 E.02841
G1 X44.558 Y11.761 E.02558
G1 X44.96 Y11.264 E.02305
G1 X45.412 Y10.827 E.02271
G1 X45.876 Y10.472 E.02109
G1 X46.375 Y10.171 E.02104
G1 X47 Y9.889 E.02477
G1 X47.435 Y9.748 E.01651
G1 X47.971 Y9.627 E.01983
G1 X48.991 Y9.541 E.03696
G1 X171.813 Y9.541 E4.43462
G1 X172.525 Y9.586 E.02574
G1 X173.128 Y9.696 E.02213
G1 X173.7 Y9.873 E.02163
G1 X174.477 Y10.232 E.03088
G1 X175.033 Y10.581 E.02373
G1 X175.529 Y10.985 E.02308
G1 X175.944 Y11.414 E.02155
G1 X176.318 Y11.902 E.0222
G1 X176.624 Y12.417 E.02164
G1 X176.871 Y12.963 E.02163
G1 X177.033 Y13.451 E.01859
G1 X177.153 Y13.985 E.01976
G1 X177.239 Y14.994 E.03655
G1 X177.24 Y107.821 E3.35159
G1 X177.197 Y108.525 E.02547
G1 X177.084 Y109.143 E.02268
G1 X176.908 Y109.715 E.02164
G1 X176.581 Y110.431 E.02841
G1 X176.209 Y111.034 E.02558
G1 X175.807 Y111.53 E.02305
G1 X175.355 Y111.968 E.02271
G1 X174.891 Y112.323 E.02109
G1 X174.392 Y112.624 E.02104
G1 X173.766 Y112.905 E.02477
G1 X173.331 Y113.046 E.01651
G1 X172.796 Y113.167 E.01983
G1 X171.776 Y113.254 E.03696
G1 X48.96 Y113.254 E4.43438
G1 X48.256 Y113.211 E.02547
G1 X47.638 Y113.098 E.02268
G1 X47.065 Y112.922 E.02164
G1 X46.35 Y112.595 E.02841
G1 X45.747 Y112.223 E.02558
G1 X45.25 Y111.821 E.02305
G1 X44.813 Y111.369 E.02271
G1 X44.458 Y110.905 E.02109
G1 X44.157 Y110.406 E.02104
G1 X43.875 Y109.78 E.02477
G1 X43.734 Y109.345 E.01651
G1 X43.614 Y108.81 E.01983
G1 X43.527 Y107.79 E.03696
G1 X43.527 Y14.974 E3.3512
G1 X43.57 Y14.27 E.02547
G1 X43.682 Y13.652 E.02268
G1 X43.763 Y13.39 E.00989
G1 X44.2 Y13.526 F30000
G1 F3600
G1 X44.291 Y13.234 E.01103
G1 X44.586 Y12.587 E.02568
G1 X44.927 Y12.033 E.02349
G1 X45.292 Y11.58 E.02101
G1 X45.717 Y11.169 E.02134
G1 X46.127 Y10.855 E.01865
G1 X46.58 Y10.581 E.01912
G1 X47.172 Y10.314 E.02345
G1 X47.562 Y10.188 E.0148
G1 X48.032 Y10.082 E.01737
G1 X49.016 Y9.998 E.03567
G1 X171.795 Y9.998 E4.43305
G1 X172.477 Y10.042 E.02469
G1 X173.027 Y10.143 E.02017
G1 X173.544 Y10.304 E.01959
G1 X174.266 Y10.639 E.02871
G1 X174.773 Y10.959 E.02164
G1 X175.225 Y11.328 E.02107
G1 X175.602 Y11.719 E.01961
G1 X175.934 Y12.153 E.01971
G1 X176.215 Y12.622 E.01976
G1 X176.442 Y13.122 E.01985
G1 X176.59 Y13.567 E.01693
G1 X176.698 Y14.046 E.01773
G1 X176.782 Y15.019 E.03527
G1 X176.783 Y107.802 E3.35002
G1 X176.741 Y108.478 E.02443
G1 X176.637 Y109.042 E.02071
G1 X176.476 Y109.56 E.0196
G1 X176.181 Y110.208 E.02568
G1 X175.84 Y110.762 E.02349
G1 X175.474 Y111.215 E.02101
G1 X175.05 Y111.626 E.02134
G1 X174.64 Y111.94 E.01865
G1 X174.186 Y112.214 E.01912
G1 X173.594 Y112.481 E.02345
G1 X173.204 Y112.607 E.0148
G1 X172.735 Y112.712 E.01737
G1 X171.751 Y112.797 E.03567
G1 X48.978 Y112.797 E4.43282
G1 X48.303 Y112.755 E.02443
G1 X47.739 Y112.651 E.02071
G1 X47.22 Y112.49 E.0196
G1 X46.573 Y112.195 E.02568
G1 X46.019 Y111.853 E.02349
G1 X45.566 Y111.488 E.02101
G1 X45.155 Y111.064 E.02134
G1 X44.841 Y110.654 E.01865
G1 X44.567 Y110.2 E.01912
G1 X44.3 Y109.608 E.02345
G1 X44.174 Y109.218 E.0148
G1 X44.068 Y108.749 E.01737
G1 X43.984 Y107.764 E.03567
G1 X43.984 Y14.992 E3.34964
G1 X44.026 Y14.317 E.02443
G1 X44.13 Y13.753 E.02071
G1 X44.188 Y13.564 E.00713
G1 X44.625 Y13.701 F30000
G1 F3600
G1 X44.722 Y13.39 E.01178
G1 X44.987 Y12.81 E.023
G1 X45.297 Y12.305 E.02142
G1 X45.637 Y11.883 E.01956
G1 X46.022 Y11.511 E.01934
G1 X46.391 Y11.229 E.01677
G1 X46.786 Y10.991 E.01665
G1 X47.344 Y10.739 E.02211
G1 X47.689 Y10.628 E.01308
G1 X48.093 Y10.537 E.01494
G1 X49.042 Y10.455 E.03438
G1 X171.776 Y10.455 E4.43145
G1 X172.429 Y10.497 E.02363
G1 X172.925 Y10.59 E.0182
G1 X173.388 Y10.736 E.01754
G1 X174.054 Y11.046 E.02654
G1 X174.512 Y11.336 E.01956
G1 X174.92 Y11.671 E.01907
G1 X175.259 Y12.024 E.01768
G1 X175.559 Y12.416 E.01783
G1 X175.812 Y12.842 E.01788
G1 X176.013 Y13.283 E.0175
G1 X176.147 Y13.684 E.01526
G1 X176.244 Y14.108 E.01569
G1 X176.325 Y15.045 E.03397
G1 X176.326 Y107.784 E3.34843
G1 X176.285 Y108.43 E.02338
G1 X176.19 Y108.94 E.01873
G1 X176.044 Y109.405 E.01758
G1 X175.78 Y109.984 E.023
G1 X175.47 Y110.49 E.02142
G1 X175.13 Y110.912 E.01956
G1 X174.745 Y111.284 E.01934
G1 X174.375 Y111.566 E.01677
G1 X173.981 Y111.804 E.01665
G1 X173.422 Y112.056 E.02211
G1 X173.078 Y112.167 E.01308
G1 X172.674 Y112.257 E.01494
G1 X171.725 Y112.34 E.03439
G1 X48.997 Y112.34 E4.43123
G1 X48.351 Y112.299 E.02338
G1 X47.84 Y112.204 E.01873
G1 X47.376 Y112.058 E.01758
G1 X46.796 Y111.794 E.023
G1 X46.291 Y111.484 E.02142
G1 X45.869 Y111.144 E.01956
G1 X45.497 Y110.759 E.01934
G1 X45.215 Y110.389 E.01677
G1 X44.977 Y109.995 E.01665
G1 X44.725 Y109.436 E.02211
G1 X44.614 Y109.091 E.01308
G1 X44.523 Y108.688 E.01494
G1 X44.441 Y107.739 E.03438
G1 X44.441 Y15.011 E3.34805
G1 X44.482 Y14.364 E.02338
G1 X44.577 Y13.854 E.01873
G1 X44.613 Y13.739 E.00435
G1 X45.049 Y13.877 F30000
G1 F3600
G1 X45.153 Y13.546 E.01254
G1 X45.388 Y13.033 E.02035
G1 X45.666 Y12.576 E.01933
G1 X45.969 Y12.198 E.01747
G1 X46.327 Y11.853 E.01794
G1 X46.643 Y11.612 E.01436
G1 X46.992 Y11.4 E.01474
G1 X47.516 Y11.164 E.02076
G1 X47.816 Y11.068 E.01135
G1 X48.154 Y10.992 E.01253
G1 X49.067 Y10.912 E.0331
G1 X171.757 Y10.912 E4.42983
G1 X172.38 Y10.953 E.02256
G1 X172.806 Y11.033 E.01562
G1 X173.214 Y11.16 E.01543
G1 X173.842 Y11.453 E.02503
G1 X174.25 Y11.712 E.01746
G1 X174.615 Y12.013 E.01707
G1 X174.917 Y12.328 E.01575
G1 X175.175 Y12.667 E.01538
G1 X175.403 Y13.047 E.01603
G1 X175.584 Y13.444 E.01574
G1 X175.704 Y13.801 E.01361
G1 X175.789 Y14.169 E.01365
G1 X175.868 Y15.071 E.03267
G1 X175.869 Y107.765 E3.34682
G1 X175.829 Y108.382 E.02232
G1 X175.743 Y108.838 E.01674
G1 X175.613 Y109.249 E.01556
G1 X175.379 Y109.762 E.02035
G1 X175.1 Y110.219 E.01933
G1 X174.798 Y110.596 E.01747
G1 X174.44 Y110.941 E.01794
G1 X174.124 Y111.183 E.01436
G1 X173.775 Y111.394 E.01474
G1 X173.251 Y111.631 E.02076
G1 X172.951 Y111.726 E.01135
G1 X172.613 Y111.803 E.01253
G1 X171.699 Y111.882 E.0331
G1 X49.016 Y111.882 E4.42963
G1 X48.399 Y111.843 E.02232
